X:1
T:Preludium in D minor
T:Preludium in D minor
T:(Prelude) BWV 940
T:Johann Sebastian Bach
C:Johann Sebastian Bach
%%score 1 2 3 4
L:1/8
M:4/4
K:Dmin
V:1 treble 
V:2 treble 
V:3 bass 
V:4 bass 
V:1
 x2 A/B/F/G/ A>BG>F | z2 (d4 ^c2) | x8 | ^c2- c/A/d- d2 =c2 | =B4- B2 A2- | %5
 A/A/=G/F/ G2- (G2 F2-) | F/A/G/F/ E<G- G/G/F/E/ D<F- | F/F/E/D/ =B2 A2 G2 | ^F2 G2 z G/B/ e2 | %9
 d8 |] %10
V:2
 z/ d/c/B/ x2 x4 | (F4 E4) | d/a/g/f/ e/f/^c/d/ e>fd>c | z4 z2 A2- | A2 ^G2- G/G/^F/E/ z2 | %5
 z2 PE2- E2 D2- | D3 ^C/D/ C2 D2- | D z z/ E/F/D/ z/ E/F/D/ z/ D/E/^C/ | %8
 z/ E/D/=C/ _B,<D z2 z/ B/A/G/ | F8 |] %10
V:3
 F,4 E,4 | x8 | z2 A,2 B,2 =B,2 | z/ =B/A/=G/ F>F E4- | E4- E2- E/E/=F/D/ | =B,4 A,4 | %6
 G,4 A,3 ^G,/A,/ | ^G,4 [^C,=G,][D,F,] E,2 | z2 z ^F,/G,/ z/ B,3/2- B,2 | A,8 |] %10
V:4
 D,4 ^C,4 | D,/D/=C/B,/ A,/B,/F,/G,/ PA,>B,G,>F, | F,4 G,2 ^G,2 | A,4- A,/A,/=G,/F,/ E,/F,/C,/D,/ | %4
 PE,>F,D,>C, C,3 D, | E,2- E,/F,/E,/D,/ ^C,/A,,/=B,,/C,/ D,/E,/F,/D,/ | _B,,4 A,,4- | A,,4 A,,4 | %8
 [D,,D,]4 ^C,4 | D,8 |] %10

